X: 09094
T: REWICK'S REEL
C: Bob McQuillen
B: Bob's Note Book 9 #94
R: reel
Z: 2018 John Chambers <jc:trillian.mit.edu>
L: 1/8
M: C
K: G
GE |\
D2DE GABG | AGBG AGEG | D2DE GABd | egde gabg |
edeg d2gb | aged e2ge | d2Bd gedB | AGAB G2 :|
|: Bd |\
g2g2 gabg | edeg d2de | g2ga bgeg | dBGB A2GE |
DEGB GBde | degb aged | g2bg eage | dBAB G2 :|
%%begintext align
%% Lucille Reilly (the Dulcimer Lady!) and I
%% recently played some dances down in the garden State and at the
%% summit Church in Philly. We had a real fine time, and I was
%% very pleased to meet her nice husband, Dave Rewick, when they
%% so kindly put me up for the night. I bet you won't have a problem finding
%% someone to play this tune for you, Dave!  Thanks again to you both for your
%% hospitality.
%%endtext

%%sep 1 1 500

%%sep 1 1 500

